X: 16464
T: Hag With The Money, The
R: jig
M: 6/8
K: Amixolydian
|:Adc AB=c|AGE GFG|Adc AB=c|dBA GED|
Adc AB=c|AGE GFG|E2B Ade|dcA GED:|
|:ABc d2e|fed edc|ABc d2e|faf gec|
ABc d2e|fed edc|aga def|edB AGE:|

